X: 1
T: the Rendezvous
R: reel
Z: 1997 by John Chambers <jc:trillian.mit.edu>
M: C|
L: 1/8
K: G
|: B | "G"G2GD   B,DGF |  "C"EAAG "D7"FGAB | "G"G2GD      B,DGF | "C"EG"D"FA "G"BGG :|
   c | "G"B{c}ddg Bdgd | "A7"^c{d}eea ceae | "G"B{c}ddg    Bdgd | "C"eg"D"dg "G"BGG  |
   c | "G"B{c}ddg Bdgd | "A7"^c{d}eea ceae | "G"dg"D"fa "G"gdBG | "C"EG"D"FA "G"BGG |]
